X:1
T:Sicut rosa inter spinas
T:Orlando di Lasso
T:Source : Bicinia---Antwerp---Pierre Phalèse Jr---1609. Editor : André Vierendeels (09/06/17).
T:Notes : Original clefs :  C4, F4 Editorial accidentals above the staff Original note values have been halved Square bracket indicates ligature 
T:Sicut rosa inter spinas
T:©
T:©
T:©
C:Orlando di Lasso
Z:©
%%score [ 1 2 ]
L:1/8
Q:1/4=120
M:2/2
K:C
V:1 treble-8 nm="Tenor" snm="T"
V:2 bass nm="Bass" snm="B"
V:1
 G3 A BcdB | e4 d2 B2- | B2 e3 d c2 | B2 d4 d2 | GABc d3 c | B4 G4 | d3 c BA G2- | G2 F2 E4 | %8
w: Sic- * * * * *|* ut ro-|* * * sa,|sic- ut ro-||* sa|in- * * * *|* ter spi-|
 D2 A4 B2 | c4 B2 d2- | dcBA GFED | C2 C2 G4 | z2 G4 E2 | G4 A2 c2- | cBAG _B2 A2 | A4 D2 F2 | %16
w: nas il- lis|ad- dit spe-||* ci- em,|sic ve-|nu- stat su-|* * * * * am|vir- go Ma-|
 E2 F2 G4 | G3 A B2 A2 | F2 c2 B2 c2 | d2 c3 B d2- | d2 cB cA c2- | c2 B2 c4 | z2 G2 A2 B2- | %23
w: ri- am pro-|ge- * * ni-|em, Ma- ri- am|pro- ge- * *||* ni- em|ger- mi- na-|
 B2 F2 c4 | d2 e3 d/c/Bc | dA d3 c/B/ c2 | d8 | z2 d2 e2 d2- | dB ^c2 d2 e2 | %29
w: * vit e-|nim flo- * * * *||rem,|qui vi- ta-|* * * lem dat|
"^-natural" c2 GA Bc d2 | G4 z2 G2 | A2 G3 E ^F2 | G2 A2 c4 | B3 A/G/ A4 | G8 |] %35
w: o- do- * * * *|rem qui|vi- ta- * *|lem dat o-|do- * * *|rem.|
V:2
 z2 G,4 G,2 | C,D,E,F, G,3 F, | E,4 C,4 | G,,3 A,, B,,C,D,B,, | E,4 D,2 B,,2- | B,,2 E,3 D, C,2 | %6
w: Sic ut|ro- * * * * *|* sa,|sic- * * * * *|* ut ro-||
 B,,2 G,,3 A,, B,,2 |"^#""^#" C,2 D,3 C,/B,,/ C,2 | D,8 | z2 E,4 ^F,2 | G,4 E,2 G,2- | %11
w: sa in- * *|ter spi- * * *|nas,|il- lis|ad- dit spe-|
 G,F,E,D, C,2 B,,2 | C,8 | z2 C,4 A,,2 | C,4 D,2 F,2- | F,E,D,C, _B,,2 A,,2 | A,,4 E,2 C,2 | %17
w: * * * * * ci-|em,|sic ve-|nu- stat su-|* * * * * am|vir- go Ma-|
 B,,2 C,2 D,4 | D,2 A,,2 E,4 | z2 F,2 E,2 F,2 | G,4 F,2 E,2 | D,4 z2 A,,2 | B,,2 C,4 G,,2 | %23
w: ri- am pro-|ge- ni- em,|Ma- ri- am|pro- ge- ni-|em, ger-|mi- na- vir|
 D,4 E,2 F,2- | F,E,/D,/C,D, E,F, G,2- | G,F,F,E,/D,/ E,4 | D,4 z2 G,2 | A,2 G,3 E, ^F,2 | %28
w: e- nim flo-|||rem, qui|vi- ta- * *|
 G,2 A,2 F,2 C,2- | C,D,E,F, G,4 | E,2 C,2 D,2 C,2- | C,A,, B,,2 C,2 D,2 | E,2 F,3 E, A,2- | %33
w: lem dat o- do-||rem, qui vi- ta-|* * * lem dat|o do- * *|
"^#" A,G, G,3 F,/E,/ F,2 |"^#" G,8 |] %35
w: |rem.|

